icons/heart-add-line.svg

<svg viewBox="0 0 24 24" fill="currentColor" xmlns="http://www.w3.org/2000/svg">
    <path d="M19.0001 14V17H22.0001V19H18.9991L19.0001 22H17.0001L16.9991 19H14.0001V17H17.0001V14H19.0001ZM20.2426 4.75748C22.505 7.02453 22.5829 10.6361 20.4795 12.9921L19.06 11.5741C20.3901 10.05 20.3201 7.66 18.827 6.17022C17.3244 4.67104 14.9076 4.60713 13.337 6.017L12.0019 7.21536L10.6661 6.01793C9.09098 4.60609 6.67506 4.66821 5.17157 6.1717C3.68183 7.66143 3.60704 10.0474 4.97993 11.6233L13.412 20.0691L11.9999 21.4851L3.52138 12.9931C1.41705 10.6371 1.49571 7.01913 3.75736 4.75748C6.02157 2.49327 9.64519 2.41699 12.001 4.52865C14.35 2.42012 17.98 2.49012 20.2426 4.75748Z"/>
</svg>

<svg xmlns="http://www.w3.org/2000/svg" viewBox="0 0 24 24">
    <g>
        <path fill="none" d="M0 0H24V24H0z"/>
        <path d="M19 14v3h3v2h-3.001L19 22h-2l-.001-3H14v-2h3v-3h2zm1.243-9.243c2.262 2.268 2.34 5.88.236 8.235l-1.42-1.418c1.331-1.524 1.261-3.914-.232-5.404-1.503-1.499-3.92-1.563-5.49-.153l-1.335 1.198-1.336-1.197c-1.575-1.412-3.991-1.35-5.494.154-1.49 1.49-1.565 3.875-.192 5.451l8.432 8.446L12 21.485 3.52 12.993c-2.104-2.356-2.025-5.974.236-8.236 2.265-2.264 5.888-2.34 8.244-.228 2.349-2.109 5.979-2.039 8.242.228z"/>
    </g>
</svg>
